svg/fluentui-system-icons/ic_fluent_sport_hockey_20_regular.svg

<svg width="20" height="20" viewBox="0 0 20 20" fill="none" xmlns="http://www.w3.org/2000/svg">
<path d="M11.9718 2.06354C13.3122 1.79097 14.5763 2.42686 15.4162 3.36836L17.1305 5.29014C17.8787 6.12884 18.2121 7.30758 17.861 8.42304C15.7506 15.1286 10.8318 17.4966 7.67245 17.9722C6.76562 18.1088 5.91324 17.7456 5.28391 17.1881L3.4708 15.5822C2.25677 14.5069 1.64812 12.807 2.21211 11.2106C4.3269 5.22448 8.66633 2.73567 11.9718 2.06354ZM14.6699 4.03404C13.9919 3.27401 13.0651 2.8617 12.1711 3.04348C9.17023 3.65368 5.13987 5.92532 3.155 11.5437C2.74963 12.6911 3.16943 13.9794 4.13384 14.8336L5.94695 16.4396C6.41491 16.854 6.98093 17.0651 7.52359 16.9834C10.3684 16.5551 14.9295 14.4065 16.9071 8.12283C17.1391 7.3857 16.929 6.56645 16.3843 5.95583L14.6699 4.03404ZM14.0763 5.00579C14.3492 5.04793 14.5363 5.30332 14.4941 5.57623C14.081 8.25234 12.7182 10.4297 11.1744 12.0162C9.63797 13.5951 7.88691 14.625 6.63691 14.9808C6.37132 15.0564 6.09472 14.9024 6.01911 14.6368C5.9435 14.3713 6.0975 14.0947 6.36309 14.019C7.41007 13.721 9.01524 12.8012 10.4577 11.3188C11.8928 9.84396 13.1315 7.84828 13.5059 5.42364C13.548 5.15073 13.8034 4.96365 14.0763 5.00579Z" fill="#212121"/>
</svg>

<svg xmlns="http://www.w3.org/2000/svg" width="20" height="20"><path d="M11.972 2.064c1.34-.273 2.604.363 3.444 1.304l1.715 1.922c.748.839 1.081 2.018.73 3.133-2.11 6.706-7.03 9.074-10.189 9.55-.906.136-1.759-.227-2.388-.785L3.47 15.582c-1.214-1.075-1.823-2.775-1.259-4.371 2.115-5.987 6.454-8.475 9.76-9.147Zm2.698 1.97c-.678-.76-1.605-1.172-2.499-.99-3 .61-7.031 2.881-9.016 8.5-.405 1.147.014 2.435.979 3.29l1.813 1.606c.468.414 1.034.625 1.577.543 2.844-.428 7.406-2.577 9.383-8.86.232-.737.022-1.557-.523-2.167L14.67 4.034Zm-.594.972a.5.5 0 0 1 .418.57c-.413 2.676-1.776 4.854-3.32 6.44-1.536 1.58-3.287 2.609-4.537 2.965a.5.5 0 0 1-.274-.962c1.047-.298 2.652-1.218 4.095-2.7 1.435-1.475 2.674-3.47 3.048-5.895a.5.5 0 0 1 .57-.418Z"/></svg>
